flaticon/design/spray.svg

<svg xmlns="http://www.w3.org/2000/svg" width="32" height="32" viewBox="0 0 24 24">
    <path d="M15 9.199219L14.578125 9.199219C14.375 6.960938 12.492188 5.199219 10.199219 5.199219L10.199219 4.800781 11 4.800781C11.222656 4.800781 11.398438 4.621094 11.398438 4.398438L11.398438 2C11.398438 1.777344 11.222656 1.601562 11 1.601562L8.601562 1.601562C8.378906 1.601562 8.199219 1.777344 8.199219 2L8.199219 4.398438C8.199219 4.621094 8.378906 4.800781 8.601562 4.800781L9.398438 4.800781 9.398438 5.199219C7.109375 5.199219 5.222656 6.960938 5.019531 9.199219L4.601562 9.199219C4.378906 9.199219 4.199219 9.378906 4.199219 9.601562L4.199219 23.601562C4.199219 23.820312 4.378906 24 4.601562 24L15 24C15.222656 24 15.398438 23.820312 15.398438 23.601562L15.398438 9.601562C15.398438 9.378906 15.222656 9.199219 15 9.199219zM9 2.398438L10.601562 2.398438 10.601562 2.800781 10.199219 2.800781C9.980469 2.800781 9.800781 2.976562 9.800781 3.199219 9.800781 3.421875 9.980469 3.601562 10.199219 3.601562L10.601562 3.601562 10.601562 4 9 4zM9.398438 6L10.199219 6C12.050781 6 13.578125 7.402344 13.777344 9.199219L5.820312 9.199219C6.023438 7.402344 7.550781 6 9.398438 6zM5 23.199219L5 10 14.601562 10 14.601562 12.398438 8.601562 12.398438C8.378906 12.398438 8.199219 12.578125 8.199219 12.800781L8.199219 20.398438C8.199219 20.621094 8.378906 20.800781 8.601562 20.800781L14.601562 20.800781 14.601562 23.199219zM14.601562 20L9 20 9 13.199219 14.601562 13.199219zM12.601562 3.601562L13 3.601562C13.222656 3.601562 13.398438 3.421875 13.398438 3.199219 13.398438 2.976562 13.222656 2.800781 13 2.800781L12.601562 2.800781C12.378906 2.800781 12.199219 2.976562 12.199219 3.199219 12.199219 3.421875 12.378906 3.601562 12.601562 3.601562zM14.601562 2.800781L14.199219 2.800781C13.980469 2.800781 13.800781 2.976562 13.800781 3.199219 13.800781 3.421875 13.980469 3.601562 14.199219 3.601562L14.601562 3.601562C14.820312 3.601562 15 3.421875 15 3.199219 15 2.976562 14.820312 2.800781 14.601562 2.800781zM17.800781 2.800781L17.398438 2.800781C17.179688 2.800781 17 2.976562 17 3.199219 17 3.421875 17.179688 3.601562 17.398438 3.601562L17.800781 3.601562C18.023438 3.601562 18.199219 3.421875 18.199219 3.199219 18.199219 2.976562 18.019531 2.800781 17.800781 2.800781zM16.199219 2.800781L15.800781 2.800781C15.578125 2.800781 15.398438 2.976562 15.398438 3.199219 15.398438 3.421875 15.578125 3.601562 15.800781 3.601562L16.199219 3.601562C16.421875 3.601562 16.601562 3.421875 16.601562 3.199219 16.601562 2.976562 16.421875 2.800781 16.199219 2.800781zM19.398438 2.800781L19 2.800781C18.777344 2.800781 18.601562 2.976562 18.601562 3.199219 18.601562 3.421875 18.777344 3.601562 19 3.601562L19.398438 3.601562C19.621094 3.601562 19.800781 3.421875 19.800781 3.199219 19.800781 2.976562 19.621094 2.800781 19.398438 2.800781zM14.117188 1.894531C14.160156 1.894531 14.203125 1.886719 14.246094 1.875L14.625 1.746094C14.832031 1.675781 14.945312 1.449219 14.878906 1.242188 14.808594 1.03125 14.582031.917969 14.371094.988281L13.992188 1.113281C13.78125 1.183594 13.667969 1.410156 13.738281 1.621094 13.792969 1.789062 13.949219 1.894531 14.117188 1.894531zM12.601562 2.398438C12.640625 2.398438 12.683594 2.394531 12.726562 2.378906L13.105469 2.253906C13.316406 2.183594 13.429688 1.957031 13.359375 1.746094 13.289062 1.539062 13.0625 1.421875 12.851562 1.492188L12.472656 1.621094C12.265625 1.691406 12.152344 1.917969 12.21875 2.125 12.277344 2.292969 12.433594 2.398438 12.601562 2.398438zM15.636719 1.386719C15.675781 1.386719 15.71875 1.378906 15.761719 1.367188L16.140625 1.242188C16.351562 1.171875 16.464844.945312 16.394531.734375 16.324219.527344 16.097656.414062 15.890625.480469L15.511719.609375C15.300781.679688 15.1875.902344 15.257812 1.113281 15.3125 1.28125 15.46875 1.386719 15.636719 1.386719zM17.152344.882812C17.195312.882812 17.238281.875 17.28125.859375L17.527344.777344C17.734375.710938 17.847656.484375 17.78125.273438 17.710938.0625 17.484375-.046875 17.273438.0195312L17.027344.101562C16.816406.171875 16.703125.398438 16.773438.609375 16.828125.777344 16.984375.882812 17.152344.882812zM13.992188 5.285156L14.371094 5.410156C14.414062 5.425781 14.457031 5.433594 14.496094 5.433594 14.664062 5.433594 14.820312 5.324219 14.878906 5.160156 14.945312 4.949219 14.832031 4.722656 14.625 4.652344L14.246094 4.527344C14.035156 4.457031 13.808594 4.570312 13.738281 4.777344 13.667969 4.988281 13.78125 5.214844 13.992188 5.285156zM17.527344 5.621094L17.28125 5.539062C17.070312 5.46875 16.84375 5.582031 16.773438 5.792969 16.703125 6 16.816406 6.226562 17.027344 6.296875L17.273438 6.378906C17.316406 6.394531 17.359375 6.398438 17.398438 6.398438 17.566406 6.398438 17.722656 6.292969 17.78125 6.125 17.847656 5.917969 17.734375 5.691406 17.527344 5.621094zM16.140625 5.160156L15.761719 5.03125C15.550781 4.964844 15.324219 5.074219 15.257812 5.285156 15.1875 5.496094 15.300781 5.722656 15.507812 5.792969L15.890625 5.917969C15.929688 5.933594 15.972656 5.9375 16.015625 5.9375 16.183594 5.9375 16.339844 5.832031 16.394531 5.664062 16.464844 5.453125 16.351562 5.226562 16.140625 5.160156zM16.140625 5.160156"/>
    <path d="M 13.105469 4.148438 L 12.726562 4.019531 C 12.515625 3.949219 12.289062 4.0625 12.21875 4.273438 C 12.152344 4.484375 12.265625 4.710938 12.472656 4.777344 L 12.851562 4.90625 C 12.894531 4.917969 12.9375 4.925781 12.980469 4.925781 C 13.148438 4.925781 13.304688 4.820312 13.359375 4.652344 C 13.429688 4.441406 13.316406 4.21875 13.105469 4.148438 Z M 13.105469 4.148438"/>
</svg>

<svg xmlns="http://www.w3.org/2000/svg" width="32" height="32" viewBox="0 0 24 24">
    <path d="M15 9.2h-.422a4.403 4.403 0 0 0-4.379-4v-.4H11c.223 0 .398-.179.398-.402V2A.395.395 0 0 0 11 1.602H8.602A.398.398 0 0 0 8.199 2v2.398c0 .223.18.403.403.403h.796v.398a4.406 4.406 0 0 0-4.378 4h-.418a.402.402 0 0 0-.403.403v14c0 .218.18.398.403.398H15c.223 0 .398-.18.398-.398v-14A.398.398 0 0 0 15 9.199zM9 2.397h1.602v.403h-.403a.401.401 0 0 0 0 .8h.403V4H9zM9.398 6h.801a3.604 3.604 0 0 1 3.578 3.2H5.82A3.61 3.61 0 0 1 9.398 6zM5 23.2V10h9.602v2.398h-6a.402.402 0 0 0-.403.403v7.597c0 .223.18.403.403.403h6v2.398zm9.602-3.2H9v-6.8h5.602zm0 0M12.602 3.602H13c.223 0 .398-.18.398-.403A.395.395 0 0 0 13 2.801h-.398a.398.398 0 0 0-.403.398c0 .223.18.403.403.403zm0 0M14.602 2.8h-.403a.401.401 0 0 0 0 .8l.403.002a.401.401 0 0 0 0-.801zm0 0M17.8 2.8h-.402a.401.401 0 0 0 0 .8l.403.002c.222 0 .398-.18.398-.403a.398.398 0 0 0-.398-.398zm0 0M16.2 2.8h-.4a.398.398 0 0 0-.402.4c0 .222.18.402.403.402h.398c.223 0 .403-.18.403-.403a.398.398 0 0 0-.403-.398zm0 0M19.398 2.8H19a.395.395 0 0 0-.398.4c0 .222.175.402.398.402h.398c.223 0 .403-.18.403-.403a.398.398 0 0 0-.403-.398zm0 0M14.117 1.895a.491.491 0 0 0 .13-.02l.378-.129a.404.404 0 0 0 .254-.504.4.4 0 0 0-.508-.254l-.379.125a.4.4 0 0 0 .125.782zm0 0M12.602 2.398c.039 0 .082-.003.125-.02l.378-.124a.4.4 0 1 0-.253-.762l-.38.13a.404.404 0 0 0-.253.503.406.406 0 0 0 .383.273zm0 0M15.637 1.387c.039 0 .082-.008.125-.02l.379-.125a.4.4 0 0 0-.25-.762l-.38.13a.396.396 0 0 0-.253.503c.055.168.21.274.379.274zm0 0M17.152.883a.375.375 0 0 0 .13-.024l.245-.082a.401.401 0 0 0 .254-.504.404.404 0 0 0-.508-.253l-.246.082a.4.4 0 0 0 .125.78zm0 0M13.992 5.285l.38.125a.37.37 0 0 0 .124.024c.168 0 .324-.11.383-.274a.407.407 0 0 0-.254-.508l-.379-.125a.402.402 0 0 0-.508.25.4.4 0 0 0 .254.508zm0 0M17.527 5.621l-.246-.082a.4.4 0 0 0-.508.254.398.398 0 0 0 .254.504l.246.082a.406.406 0 0 0 .508-.254.404.404 0 0 0-.254-.504zm0 0M16.14 5.16l-.378-.129a.402.402 0 0 0-.254.762l.383.125a.397.397 0 0 0 .504-.254.395.395 0 0 0-.254-.504zm0 0"/>
    <path d="M13.105 4.148l-.378-.128a.4.4 0 0 0-.508.253.401.401 0 0 0 .254.504l.379.13c.043.011.085.019.128.019a.397.397 0 0 0 .38-.274.396.396 0 0 0-.255-.504zm0 0"/>
</svg>
